lib/brands/logos/experian.svg

<svg xmlns="http://www.w3.org/2000/svg" fill="none" aria-hidden="true" viewBox="0 0 184 74"><g id="Experian"><g id="Group"><path id="path12" fill="#406EB3" d="M32.2273 21.8423H25.8336C23.8979 21.8423 22.3728 20.3172 22.3728 18.3815V11.9878C22.3728 10.1107 23.8979 8.52698 25.8336 8.52698H32.2273C34.1043 8.52698 35.6881 10.0521 35.6881 11.9878V18.3815C35.6881 20.3172 34.163 21.8423 32.2273 21.8423Z"/><path id="path14" fill="#632678" d="M15.6277 36.2134H8.47149C6.30118 36.2134 4.6001 34.4536 4.6001 32.342V25.1271C4.6001 23.0154 6.35982 21.2557 8.47149 21.2557H15.6864C17.8567 21.2557 19.5578 23.0154 19.5578 25.1271V32.342C19.5578 34.5123 17.7981 36.2134 15.6277 36.2134Z"/><path id="path16" fill="#982881" d="M14.9834 51.171H10.5841C9.29362 51.171 8.23779 50.1152 8.23779 48.8248V44.4254C8.23779 43.135 9.29362 42.0791 10.5841 42.0791H14.9834C16.2739 42.0791 17.3297 43.135 17.3297 44.4254V48.8248C17.3297 50.1152 16.2739 51.171 14.9834 51.171Z"/><path id="path18" fill="#BA2F7D" d="M26.7712 65.073H21.5507C20.0256 65.073 18.7351 63.8412 18.7351 62.2575V57.0369C18.7351 55.5118 19.9669 54.2214 21.5507 54.2214H26.7712C28.2963 54.2214 29.5868 55.4531 29.5868 57.0369V62.2575C29.5868 63.8412 28.355 65.073 26.7712 65.073Z"/><path id="path20" fill="#BA2F7D" d="M45.8361 24.4818H42.2579C41.2021 24.4818 40.3223 23.6019 40.3223 22.5461V18.968C40.3223 17.9121 41.2021 17.0323 42.2579 17.0323H45.8361C46.8919 17.0323 47.7718 17.9121 47.7718 18.968V22.5461C47.8305 23.6019 46.9506 24.4818 45.8361 24.4818Z"/><g id="Union"><path fill="#26478D" d="M126.843 24.8338C126.843 25.9483 125.963 26.8869 124.79 26.8869C123.617 26.8869 122.678 25.9483 122.678 24.8338C122.678 23.7193 123.617 22.7808 124.79 22.7808C125.905 22.7808 126.843 23.6607 126.843 24.8338Z"/><path fill="#26478D" fill-rule="evenodd" d="M66.131 31.8727C67.9494 30.2303 70.4131 29.2331 73.0527 29.2331C78.8598 29.2331 83.4351 33.8671 83.4351 39.6155C83.4351 45.3053 78.8011 49.9393 73.0527 49.9393C70.4131 49.9393 67.9494 48.9421 66.131 47.2997V56.157C66.131 57.0368 65.3098 57.7994 64.43 57.7994C63.6088 57.7994 62.7289 57.0368 62.7289 56.157V31.0515C62.7289 30.1716 63.5501 29.4091 64.43 29.4091C65.3685 29.4091 66.131 30.1716 66.131 31.0515V31.8727ZM72.994 32.6939C69.1226 32.6939 66.0724 35.7441 66.0724 39.6155C66.0724 43.4869 69.1226 46.5371 72.994 46.5371C76.8654 46.5371 79.9156 43.4869 79.9156 39.6155C79.9743 35.7441 76.9241 32.6939 72.994 32.6939Z" clip-rule="evenodd"/><path fill="#26478D" d="M48.9463 49.0594C48.653 49.5286 48.1251 49.7633 47.5385 49.7633C47.2452 49.7633 46.8346 49.7045 46.6 49.5286C46.1307 49.2354 45.8374 48.6488 45.8374 48.0622C45.8374 47.7689 45.8962 47.4757 46.072 47.241L50.882 39.6742L46.072 32.1074C45.896 31.8727 45.8374 31.5208 45.8374 31.2861C45.8374 30.6996 46.1307 30.113 46.6586 29.8197C46.9519 29.6437 47.2452 29.5851 47.5385 29.5851C48.1251 29.5851 48.653 29.8197 49.0049 30.2889L52.935 36.5067L56.9237 30.2889C57.217 29.8197 57.8036 29.5851 58.3901 29.5851C58.6834 29.5851 58.9767 29.6438 59.27 29.8197C59.7979 30.113 60.0912 30.6996 60.0912 31.2861C60.0912 31.5794 60.0326 31.8727 59.8566 32.1074L55.0467 39.6742L59.8566 47.241C60.0326 47.4757 60.0912 47.7689 60.0912 48.0622C60.0912 48.6488 59.7979 49.294 59.3287 49.5286C59.0354 49.7047 58.6834 49.7633 58.3901 49.7633C57.8036 49.7633 57.3343 49.5286 56.9824 49.0594L52.9936 42.9004L48.9463 49.0594Z"/><path fill="#26478D" d="M112.824 37.7386V48.1209C112.824 49.0008 112.003 49.7634 111.123 49.7634C110.184 49.7634 109.422 49.0008 109.422 48.1209V31.0516C109.422 30.1717 110.243 29.4091 111.123 29.4091C111.944 29.4091 112.765 30.113 112.824 30.9929C114.232 29.9371 116.05 29.2919 117.986 29.2919C119.042 29.2919 119.863 30.113 119.863 30.9929C119.863 31.9314 119.042 32.7526 117.986 32.7526C115.346 32.8114 112.824 33.7498 112.824 37.7386Z"/><path fill="#26478D" d="M124.791 29.4092C123.852 29.4092 123.09 30.1717 123.09 31.0516V48.1796C123.09 49.0595 123.911 49.822 124.791 49.822C125.612 49.822 126.492 49.0595 126.492 48.1796V31.0516C126.492 30.1717 125.671 29.4092 124.791 29.4092Z"/><path fill="#26478D" fill-rule="evenodd" d="M146.609 31.0516C146.609 30.1717 147.431 29.4091 148.311 29.4091C149.132 29.4091 150.012 30.1717 150.012 31.0516V48.1796C150.012 49.0595 149.19 49.822 148.311 49.822C147.372 49.822 146.609 49.0595 146.609 48.1796V47.3584C144.732 49.0008 142.327 49.998 139.688 49.998C133.881 49.998 129.305 45.364 129.305 39.6156C129.305 33.9258 133.939 29.2919 139.688 29.2919C142.327 29.2919 144.732 30.289 146.609 31.9314V31.0516ZM139.688 46.5372C143.559 46.5372 146.609 43.487 146.609 39.6156C146.609 35.7442 143.559 32.694 139.688 32.694C135.816 32.694 132.766 35.7442 132.766 39.6156C132.766 43.487 135.816 46.5372 139.688 46.5372Z" clip-rule="evenodd"/><path fill="#26478D" d="M167.435 37.9732C167.435 35.099 164.971 32.6353 162.097 32.6353C159.34 32.6353 156.759 33.7498 156.759 37.7972V48.1796C156.759 49.0595 155.938 49.822 155.058 49.822C154.119 49.822 153.357 49.0595 153.357 48.1796V31.0516C153.357 30.1717 154.178 29.4091 155.058 29.4091C155.879 29.4091 156.7 30.113 156.759 30.9929C158.225 29.8784 160.044 29.2919 162.038 29.2919C166.672 29.2919 170.837 32.9286 170.837 37.5039V48.1796C170.837 49.0595 170.015 49.822 169.136 49.822C168.197 49.822 167.435 49.0595 167.435 48.1796V37.9732Z"/><path fill="#26478D" fill-rule="evenodd" d="M44.8392 39.029C44.7805 33.7498 40.0879 29.2919 34.5155 29.2919C28.7084 29.2919 24.1331 33.9258 24.1331 39.6156C24.1331 45.4227 28.767 49.998 34.5155 49.998C37.2724 49.998 39.8533 48.9422 41.7304 47.0651C42.0823 46.7718 42.3169 46.2439 42.3169 45.7746C42.3169 44.8361 41.4957 44.0736 40.6158 44.0736C40.0879 44.0736 39.6187 44.3669 39.2667 44.7775C38.0936 46.0093 36.3925 46.5959 34.5741 46.5959C31.1133 46.5959 28.2977 44.2495 27.7112 40.9647H43.3728C43.4316 40.9647 43.4901 40.9647 43.5489 40.9059C44.2527 40.6126 44.8392 39.9089 44.8392 39.029ZM34.5155 32.694C37.6243 32.694 40.2052 34.6883 41.0851 37.5039H27.8871C28.767 34.6883 31.3479 32.694 34.5155 32.694Z" clip-rule="evenodd"/><path fill="#26478D" fill-rule="evenodd" d="M106.547 39.029C106.488 33.7498 101.737 29.2919 96.2229 29.2919C90.4158 29.2919 85.8405 33.9258 85.8405 39.6156C85.8405 45.4227 90.4745 49.998 96.2229 49.998C98.9798 49.998 101.561 48.9422 103.438 47.0651C103.79 46.7718 104.024 46.2439 104.024 45.7746C104.024 44.8361 103.203 44.0736 102.323 44.0736C101.795 44.0736 101.326 44.3669 100.974 44.7775C99.801 46.0093 98.1 46.5959 96.2816 46.5959C92.8208 46.5959 90.0052 44.2495 89.4186 40.9647H105.198C105.901 40.6714 106.547 39.9089 106.547 39.029ZM96.2229 32.694C99.3318 32.694 101.913 34.6883 102.793 37.5039H89.5946C90.4745 34.6883 93.0554 32.694 96.2229 32.694Z" clip-rule="evenodd"/><path fill="#26478D" d="M174.472 49.822C174.296 49.822 174.179 49.7047 174.179 49.5287V46.6545H173.534C173.358 46.6545 173.24 46.5372 173.24 46.3612C173.24 46.1852 173.358 46.0679 173.534 46.0679H175.411C175.587 46.0679 175.704 46.1852 175.704 46.3612C175.704 46.5372 175.587 46.6545 175.411 46.6545H174.765V49.5287C174.765 49.7047 174.648 49.822 174.472 49.822Z"/><path fill="#26478D" d="M177.816 49.822C177.641 49.822 177.582 49.7048 177.523 49.5874L176.702 47.2411V49.5287C176.702 49.7047 176.585 49.822 176.409 49.822C176.233 49.822 176.115 49.7047 176.115 49.5287V46.4785C176.115 46.2439 176.291 46.0679 176.526 46.0679C176.702 46.0679 176.878 46.1852 176.937 46.3612L177.758 48.7662L178.579 46.3612C178.638 46.1852 178.814 46.0679 178.99 46.0679C179.224 46.0679 179.4 46.244 179.4 46.4785V49.5287C179.4 49.7047 179.283 49.822 179.107 49.822C178.931 49.822 178.814 49.7047 178.814 49.5287V47.2411C178.778 47.3477 178.737 47.4759 178.692 47.6158C178.59 47.9376 178.467 48.3218 178.344 48.6489C178.051 49.5874 177.992 49.5874 177.992 49.5874C178.051 49.7634 177.934 49.822 177.816 49.822Z"/></g></g></g></svg>

<svg xmlns="http://www.w3.org/2000/svg" fill="none" aria-hidden="true" viewBox="0 0 184 74"><path fill="#406EB3" d="M32.227 21.842h-6.393a3.43 3.43 0 0 1-3.461-3.46v-6.394a3.467 3.467 0 0 1 3.46-3.461h6.394a3.467 3.467 0 0 1 3.461 3.46v6.394a3.43 3.43 0 0 1-3.46 3.461Z"/><path fill="#632678" d="M15.628 36.213H8.47a3.868 3.868 0 0 1-3.87-3.871v-7.215c0-2.112 1.76-3.871 3.871-3.871h7.215c2.17 0 3.872 1.76 3.872 3.871v7.215c0 2.17-1.76 3.871-3.93 3.871Z"/><path fill="#982881" d="M14.983 51.171h-4.4a2.353 2.353 0 0 1-2.345-2.346v-4.4a2.353 2.353 0 0 1 2.346-2.346h4.4a2.353 2.353 0 0 1 2.345 2.346v4.4a2.353 2.353 0 0 1-2.346 2.346Z"/><path fill="#BA2F7D" d="M26.771 65.073h-5.22a2.816 2.816 0 0 1-2.816-2.815v-5.221a2.816 2.816 0 0 1 2.816-2.816h5.22a2.816 2.816 0 0 1 2.816 2.816v5.22a2.78 2.78 0 0 1-2.816 2.816Zm19.065-40.591h-3.578a1.953 1.953 0 0 1-1.936-1.936v-3.578c0-1.056.88-1.936 1.936-1.936h3.578c1.056 0 1.936.88 1.936 1.936v3.578c.059 1.056-.822 1.936-1.936 1.936Z"/><path fill="#26478D" d="M126.843 24.834a2.04 2.04 0 0 1-2.053 2.053c-1.173 0-2.112-.939-2.112-2.053 0-1.115.939-2.053 2.112-2.053a2.04 2.04 0 0 1 2.053 2.053Z"/><path fill="#26478D" fill-rule="evenodd" d="M66.13 31.873a10.35 10.35 0 0 1 6.922-2.64c5.808 0 10.383 4.634 10.383 10.382 0 5.69-4.634 10.324-10.383 10.324a10.35 10.35 0 0 1-6.921-2.64v8.858c0 .88-.821 1.642-1.701 1.642-.821 0-1.701-.762-1.701-1.642V31.052c0-.88.821-1.643 1.7-1.643.94 0 1.702.763 1.702 1.643v.82Zm6.864.82c-3.871 0-6.922 3.051-6.922 6.922 0 3.872 3.05 6.922 6.922 6.922 3.871 0 6.921-3.05 6.921-6.922.06-3.87-2.991-6.921-6.921-6.921Z" clip-rule="evenodd"/><path fill="#26478D" d="M48.946 49.06c-.293.469-.821.703-1.408.703-.293 0-.703-.058-.938-.234-.47-.294-.763-.88-.763-1.467 0-.293.059-.586.235-.821l4.81-7.567-4.81-7.567c-.176-.234-.235-.586-.235-.82 0-.587.294-1.174.821-1.467.294-.176.587-.235.88-.235.587 0 1.115.235 1.467.704l3.93 6.218 3.989-6.218c.293-.47.88-.704 1.466-.704.293 0 .587.059.88.235.528.293.821.88.821 1.466 0 .293-.059.587-.235.821l-4.81 7.567 4.81 7.567c.176.235.235.528.235.821 0 .587-.293 1.232-.762 1.467-.294.176-.646.234-.939.234a1.673 1.673 0 0 1-1.408-.704L52.993 42.9l-4.047 6.16Zm63.878-11.321V48.12c0 .88-.821 1.642-1.701 1.642-.939 0-1.701-.762-1.701-1.642V31.05c0-.88.821-1.642 1.701-1.642.821 0 1.642.704 1.701 1.584a8.645 8.645 0 0 1 5.162-1.701c1.056 0 1.877.821 1.877 1.7 0 .94-.821 1.76-1.877 1.76-2.64.06-5.162.998-5.162 4.987Zm11.967-8.329c-.939 0-1.701.762-1.701 1.642V48.18c0 .88.821 1.642 1.701 1.642.821 0 1.701-.763 1.701-1.642V31.052c0-.88-.821-1.643-1.701-1.643Z"/><path fill="#26478D" fill-rule="evenodd" d="M146.609 31.052c0-.88.822-1.643 1.701-1.643.822 0 1.702.763 1.702 1.643V48.18c0 .88-.822 1.642-1.702 1.642-.938 0-1.701-.763-1.701-1.642v-.822c-1.877 1.643-4.282 2.64-6.921 2.64-5.807 0-10.383-4.634-10.383-10.382 0-5.69 4.634-10.324 10.383-10.324 2.639 0 5.044.997 6.921 2.64v-.88Zm-6.921 15.485c3.871 0 6.921-3.05 6.921-6.921 0-3.872-3.05-6.922-6.921-6.922-3.872 0-6.922 3.05-6.922 6.922 0 3.871 3.05 6.921 6.922 6.921Z" clip-rule="evenodd"/><path fill="#26478D" d="M167.434 37.973c0-2.874-2.463-5.338-5.337-5.338-2.757 0-5.338 1.115-5.338 5.162V48.18c0 .88-.821 1.642-1.701 1.642-.939 0-1.701-.763-1.701-1.642V31.052c0-.88.821-1.643 1.701-1.643.821 0 1.642.704 1.701 1.584 1.466-1.115 3.285-1.701 5.279-1.701 4.634 0 8.799 3.637 8.799 8.212V48.18c0 .88-.822 1.642-1.702 1.642-.938 0-1.701-.763-1.701-1.642V37.973Z"/><path fill="#26478D" fill-rule="evenodd" d="M44.84 39.029c-.06-5.28-4.752-9.737-10.325-9.737-5.807 0-10.382 4.634-10.382 10.324 0 5.807 4.634 10.382 10.382 10.382 2.757 0 5.338-1.056 7.215-2.933.352-.293.587-.821.587-1.29 0-.939-.821-1.701-1.701-1.701-.528 0-.998.293-1.35.704-1.173 1.231-2.874 1.818-4.692 1.818-3.46 0-6.276-2.346-6.863-5.631h15.662c.059 0 .117 0 .176-.06.704-.292 1.29-.996 1.29-1.876Zm-10.325-6.335a6.83 6.83 0 0 1 6.57 4.81H27.887c.88-2.816 3.46-4.81 6.628-4.81Zm72.032 6.335c-.059-5.28-4.81-9.737-10.324-9.737-5.807 0-10.383 4.634-10.383 10.324 0 5.807 4.634 10.382 10.383 10.382 2.757 0 5.338-1.056 7.215-2.933.352-.293.586-.821.586-1.29 0-.939-.821-1.701-1.701-1.701-.528 0-.997.293-1.349.704-1.173 1.231-2.874 1.818-4.693 1.818-3.46 0-6.276-2.346-6.863-5.631h15.779c.704-.294 1.35-1.056 1.35-1.936Zm-10.324-6.335a6.829 6.829 0 0 1 6.569 4.81H89.594c.88-2.816 3.461-4.81 6.629-4.81Z" clip-rule="evenodd"/><path fill="#26478D" d="M174.472 49.822c-.176 0-.293-.117-.293-.293v-2.875h-.646c-.176 0-.293-.117-.293-.293s.117-.293.293-.293h1.877c.176 0 .294.117.294.293s-.118.294-.294.294h-.645v2.874c0 .176-.117.293-.293.293Zm3.344 0c-.176 0-.234-.117-.293-.235l-.821-2.346v2.288c0 .176-.117.293-.293.293s-.294-.117-.294-.293v-3.05c0-.235.176-.411.411-.411a.44.44 0 0 1 .41.293l.822 2.405.821-2.405a.442.442 0 0 1 .411-.293.4.4 0 0 1 .41.41v3.05c0 .177-.117.294-.293.294s-.293-.117-.293-.293V47.24c-.036.107-.077.235-.122.375a21.64 21.64 0 0 1-.348 1.033c-.293.938-.352.938-.352.938.059.176-.058.235-.176.235Z"/></svg>
